Yaru++/apps/scalable/session-properties.svg

<svg enable-background="new" height="256" viewBox="0 0 256 256" width="256" xmlns="http://www.w3.org/2000/svg" xmlns:xlink="http://www.w3.org/1999/xlink"><filter id="a" color-interpolation-filters="sRGB" height="1.13" width="1.111" x="-.06" y="-.07"><feGaussianBlur stdDeviation="2.6"/></filter><filter id="b" color-interpolation-filters="sRGB" height="1.052" width="1.045" x="-.02" y="-.03"><feGaussianBlur stdDeviation="1.04"/></filter><linearGradient id="c" gradientTransform="matrix(0 1 -1 0 285.88052 -24.82284)" gradientUnits="userSpaceOnUse" x1="39.997" x2="263.997" y1="156" y2="156"><stop offset="0" stop-color="#5884f4"/><stop offset="1" stop-color="#80a3fa"/></linearGradient><linearGradient id="d" gradientUnits="userSpaceOnUse" x1="88" x2="488" y1="88" y2="488"><stop offset="0" stop-opacity=".588235"/><stop offset="1" stop-opacity=".205556"/></linearGradient><filter id="e" color-interpolation-filters="sRGB" height="1.088" width="1.106" x="-.05" y="-.04"><feGaussianBlur stdDeviation="8.48"/></filter><filter id="f" color-interpolation-filters="sRGB" height="1.022" width="1.026" x="-.01" y="-.01"><feGaussianBlur stdDeviation="2.12"/></filter><path d="m141.84323 74c-70.59344 0-78.18921 7.250835-77.84323 77.98706v146.01294 146.01294c-.34598 70.73623 7.24979 77.98706 77.84323 77.98706h292.31354c70.59344 0 79.78033-7.27652 77.84323-77.98706v-146.01294-146.01294c0-70.737067-7.24979-77.98706-77.84323-77.98706z" filter="url(#f)" opacity=".1" transform="matrix(.5 0 0 .5 -14.116488 -20.825537)"/><path d="m141.84323 74c-70.59344 0-78.18921 7.250835-77.84323 77.98706v146.01294 146.01294c-.34598 70.73623 7.24979 77.98706 77.84323 77.98706h292.31354c70.59344 0 79.78033-7.27652 77.84323-77.98706v-146.01294-146.01294c0-70.737067-7.24979-77.98706-77.84323-77.98706z" fill="url(#d)" filter="url(#e)" opacity=".3" transform="matrix(.5 0 0 .5 -14.116488 -20.825235)"/><path d="m55.695112 13.174464c-36.098811 0-39.983002 3.69016-39.80608 39.689839v74.310167 74.31016c-.176922 35.99969 3.707269 39.68984 39.80608 39.68984h148.387318c36.09881 0 40.77464-3.70276 39.80608-39.68984v-74.31016-74.310167c0-36.000109-3.70727-39.689839-39.80608-39.689839z" opacity=".1"/><path d="m202.95648 15.17446c35.29673 0 39.09461 3.62542 38.92162 38.993529v73.006471 73.00648c.17299 35.36812-3.62489 38.99353-38.92162 38.99353h-146.15675c-35.29671 0-38.921609-3.625-38.921609-38.99353v-73.00648-73.006471c0-35.368529 3.624899-38.993529 38.921609-38.993529z" fill="url(#c)"/><path d="m17.877654 127.17477v8 65.00586c0 35.36853 3.625164 38.99414 38.921874 38.99414h146.156252c35.29673 0 39.09486-3.62602 38.92187-38.99414v-65.00586-8z" fill="#fff" opacity=".05"/><path d="m199.03338 105.1769c4.23134-.0532 7.07155.89696 8.53084 2.64832 1.53216 1.82431 2.32023 4.81666 2.32023 8.97616v72.74891c0 4.15961-.78807 7.15179-2.32023 8.97615-1.45929 1.75144-4.29916 2.64833-8.53084 2.64833h-90.2997c-4.23168 0-7.07943-.89689-8.53872-2.64833-1.532158-1.82437-2.312388-4.81655-2.312388-8.97616v-72.7489c0-4.1595.78023-7.15185 2.312388-8.97616 1.4592-1.75136 4.30704-2.64832 8.53872-2.64832z" filter="url(#b)" opacity=".05"/><path d="m199.03338 103.1769c4.23134-.0532 7.07155.89696 8.53084 2.64832 1.53216 1.82431 2.32023 4.81666 2.32023 8.97616v72.74891c0 4.15961-.78807 7.15179-2.32023 8.97615-1.45929 1.75144-4.29916 2.64833-8.53084 2.64833h-90.2997c-4.23168 0-7.07943-.89689-8.53872-2.64833-1.532158-1.82437-2.312388-4.81655-2.312388-8.97616v-72.7489c0-4.1595.78023-7.15185 2.312388-8.97616 1.4592-1.75136 4.30704-2.64832 8.53872-2.64832z" fill="#a2bcfe"/><path d="m151.03338 57.17689c4.23134-.05324 7.07155.896961 8.53084 2.648322 1.53216 1.824317 2.32023 4.816665 2.32023 8.976166v72.748912c0 4.15961-.78807 7.15179-2.32023 8.97615-1.45929 1.75144-4.29916 2.64833-8.53084 2.64833h-90.299702c-4.23167 0-7.07942-.89689-8.53871-2.64833-1.53217-1.82437-2.3124-4.81655-2.3124-8.97616v-72.748902c0-4.159501.78023-7.151849 2.3124-8.976166 1.45919-1.751361 4.30704-2.648322 8.53871-2.648322z" filter="url(#a)" opacity=".1"/><path d="m151.03338 55.17689c4.23134-.05324 7.07155.896961 8.53084 2.648322 1.53216 1.824317 2.32023 4.816665 2.32023 8.976166v72.748912c0 4.15961-.78807 7.15179-2.32023 8.97615-1.45929 1.75144-4.29916 2.64833-8.53084 2.64833h-90.299702c-4.23167 0-7.07942-.89689-8.53871-2.64833-1.53217-1.82437-2.3124-4.81655-2.3124-8.97616v-72.748902c0-4.159501.78023-7.151849 2.3124-8.976166 1.45919-1.751361 4.30704-2.648322 8.53871-2.648322z" fill="#fff"/><path d="m56.805392 15.174464c-35.296728 0-39.094869 3.62603-38.921879 38.994139v2c-.17299-35.368109 3.625151-38.994139 38.921879-38.994139h146.156238c35.29673 0 38.92188 3.62561 38.92188 38.994139v-2c0-35.368529-3.62515-38.994139-38.92188-38.994139z" fill="#fff" opacity=".3"/><path d="m56.810792 239.17447c-35.296731 0-39.094874-3.62603-38.921884-38.99414v-2c-.17299 35.36811 3.625153 38.99414 38.921884 38.99414h146.156238c35.29673 0 38.92188-3.62561 38.92188-38.99414v2c0 35.36853-3.62515 38.99414-38.92188 38.99414z" opacity=".2"/></svg>

<svg xmlns="http://www.w3.org/2000/svg" xmlns:xlink="http://www.w3.org/1999/xlink" style="enable-background:new" width="256" height="256" version="1.0" viewBox="0 0 256 256">
 <title id="title4162">
  Adwaita Icon Template
 </title>
 <defs>
  <linearGradient id="linearGradient1078">
   <stop id="stop1066" offset="0" style="stop-color:#77767b"/>
   <stop style="stop-color:#c0bfbc" id="stop1068" offset=".036"/>
   <stop id="stop1070" offset=".071" style="stop-color:#9a9996"/>
   <stop style="stop-color:#9a9996" id="stop1072" offset=".929"/>
   <stop id="stop1074" offset=".964" style="stop-color:#c0bfbc"/>
   <stop id="stop1076" offset="1" style="stop-color:#77767b"/>
  </linearGradient>
  <linearGradient id="linearGradient1044">
   <stop style="stop-color:#1a5fb4" id="stop1040" offset="0"/>
   <stop style="stop-color:#98c1f1;stop-opacity:0" id="stop1042" offset="1"/>
  </linearGradient>
  <linearGradient id="linearGradient1034">
   <stop id="stop1030" offset="0" style="stop-color:#98c1f1"/>
   <stop id="stop1032" offset="1" style="stop-color:#2dc0af;stop-opacity:0.13779527"/>
  </linearGradient>
  <linearGradient id="linearGradient6826">
   <stop style="stop-color:#50dbb5" id="stop6822" offset="0"/>
   <stop style="stop-color:#4a86cf" id="stop6824" offset="1"/>
  </linearGradient>
  <radialGradient id="radialGradient1018" cx="106.667" cy="-60.348" r="225" fx="106.667" fy="-60.348" gradientTransform="matrix(0.21428571,0,0,0.32237036,9.1428574,245.58768)" gradientUnits="userSpaceOnUse" xlink:href="#linearGradient6826"/>
  <radialGradient id="radialGradient1020" cx="276.588" cy="218.278" r="225" fx="276.588" fy="218.278" gradientTransform="matrix(0.38857143,0,0,0.52385183,-35.474283,148.05445)" gradientUnits="userSpaceOnUse" xlink:href="#linearGradient1034"/>
  <radialGradient id="radialGradient1038" cx="317.765" cy="86.748" r="225" fx="317.765" fy="86.748" gradientTransform="matrix(0.38857143,0,0,0.2757274,-35.474283,-281.78533)" gradientUnits="userSpaceOnUse" xlink:href="#linearGradient1044"/>
  <linearGradient id="linearGradient1064" x1="88.596" x2="536.596" y1="-449.394" y2="-449.394" gradientTransform="matrix(0.25,0,0,0.25,-14.148972,400.3485)" gradientUnits="userSpaceOnUse" xlink:href="#linearGradient1078"/>
  <filter style="color-interpolation-filters:sRGB" id="filter4569" width="1.023" height="1.025" x="-.01" y="-.01">
   <feGaussianBlur id="feGaussianBlur2" stdDeviation="1.16"/>
  </filter>
  <filter style="color-interpolation-filters:sRGB" id="filter989" width="1.046" height="1.05" x="-.02" y="-.03">
   <feGaussianBlur id="feGaussianBlur10" stdDeviation="2.32"/>
  </filter>
  <linearGradient id="linearGradient1048" x1="24" x2="280" y1="28" y2="284" gradientTransform="translate(-26.432006,16.431991)" gradientUnits="userSpaceOnUse">
   <stop id="stop5" offset="0" style="stop-color:#325fd1"/>
   <stop id="stop7" offset="1" style="stop-color:#6e98ff"/>
  </linearGradient>
  <linearGradient id="linearGradient1108" x1="296" x2="296" y1="-212" y2="236" gradientUnits="userSpaceOnUse">
   <stop id="stop13" offset="0" style="stop-color:#ffffff"/>
   <stop id="stop15" offset=".125" style="stop-color:#ffffff;stop-opacity:.09803922"/>
   <stop id="stop17" offset=".925" style="stop-color:#000000;stop-opacity:.09803922"/>
   <stop id="stop19" offset="1" style="stop-color:#000000;stop-opacity:.49803922"/>
  </linearGradient>
  <clipPath id="clipPath1082-3">
   <path style="fill:#8c59d9" d="M 361.9375,-212 C 507.2348,-212 528,-191.28677 528,-46.125 V 70.125 C 528,215.28618 507.2348,236 361.9375,236 H 214.0625 C 68.7652,236 48,215.28618 48,70.125 V -46.125 C 48,-191.28677 68.7652,-212 214.0625,-212 Z"/>
  </clipPath>
  <filter id="filter153" width="1.09" height="1.103" x="-.04" y="-.05" style="color-interpolation-filters:sRGB">
   <feGaussianBlur id="feGaussianBlur25" stdDeviation="3.011"/>
  </filter>
  <filter style="color-interpolation-filters:sRGB" id="filter927" width="1.111" height="1.13" x="-.06" y="-.07">
   <feGaussianBlur id="feGaussianBlur929" stdDeviation="2.6"/>
  </filter>
  <filter style="color-interpolation-filters:sRGB" id="filter941" width="1.045" height="1.052" x="-.02" y="-.03">
   <feGaussianBlur id="feGaussianBlur943" stdDeviation="1.04"/>
  </filter>
  <linearGradient id="linearGradient1694" x1="39.997" x2="263.997" y1="156" y2="156" gradientTransform="rotate(90,155.35168,130.52884)" gradientUnits="userSpaceOnUse" xlink:href="#linearGradient4338-7"/>
  <linearGradient id="linearGradient4338-7">
   <stop id="stop4342-6" offset="0" style="stop-color:#5884f4"/>
   <stop id="stop4340-2" offset="1" style="stop-color:#80a3fa"/>
  </linearGradient>
  <linearGradient id="linearGradient4358" x1="88" x2="488" y1="88" y2="488" gradientUnits="userSpaceOnUse" xlink:href="#linearGradient4360"/>
  <linearGradient id="linearGradient4360">
   <stop id="stop4362" offset="0" style="stop-color:#000000;stop-opacity:0.58823532"/>
   <stop id="stop4366" offset="1" style="stop-color:#000000;stop-opacity:0.20555556"/>
  </linearGradient>
  <filter style="color-interpolation-filters:sRGB" id="filter4380" width="1.106" height="1.088" x="-.05" y="-.04">
   <feGaussianBlur id="feGaussianBlur4382" stdDeviation="8.48"/>
  </filter>
  <filter style="color-interpolation-filters:sRGB" id="filter4346" width="1.026" height="1.022" x="-.01" y="-.01">
   <feGaussianBlur id="feGaussianBlur4348" stdDeviation="2.12"/>
  </filter>
 </defs>
 <path style="opacity:0.1;filter:url(#filter4346)" d="M 141.84323,74 C 71.24979,74 63.65402,81.250835 64,151.98706 V 298 444.01294 C 63.65402,514.74917 71.24979,522 141.84323,522 H 434.15677 C 504.75021,522 513.9371,514.72348 512,444.01294 V 298 151.98706 C 512,81.249993 504.75021,74 434.15677,74 Z" transform="matrix(0.5,0,0,0.5,-14.116488,-20.825537)"/>
 <path d="M 141.84323,74 C 71.24979,74 63.65402,81.250835 64,151.98706 V 298 444.01294 C 63.65402,514.74917 71.24979,522 141.84323,522 H 434.15677 C 504.75021,522 513.9371,514.72348 512,444.01294 V 298 151.98706 C 512,81.249993 504.75021,74 434.15677,74 Z" transform="matrix(0.5,0,0,0.5,-14.116488,-20.825235)" style="opacity:0.3;fill:url(#linearGradient4358);filter:url(#filter4380)"/>
 <path style="opacity:0.1" d="m 55.695112,13.174464 c -36.098811,0 -39.983002,3.69016 -39.80608,39.689839 v 74.310167 74.31016 c -0.176922,35.99969 3.707269,39.68984 39.80608,39.68984 H 204.08243 c 36.09881,0 40.77464,-3.70276 39.80608,-39.68984 V 127.17447 52.864303 c 0,-36.000109 -3.70727,-39.689839 -39.80608,-39.689839 z"/>
 <path style="fill:url(#linearGradient1694)" d="m 202.95648,15.17446 c 35.29673,0 39.09461,3.62542 38.92162,38.993529 v 73.006471 73.00648 c 0.17299,35.36812 -3.62489,38.99353 -38.92162,38.99353 H 56.79973 c -35.29671,0 -38.921609,-3.625 -38.921609,-38.99353 V 127.17446 54.167989 c 0,-35.368529 3.624899,-38.993529 38.921609,-38.993529 z"/>
 <path style="opacity:0.05;fill:#ffffff" d="m 17.877654,127.17477 v 8 65.00586 c 0,35.36853 3.625164,38.99414 38.921874,38.99414 H 202.95578 c 35.29673,0 39.09486,-3.62602 38.92187,-38.99414 v -65.00586 -8 z"/>
 <path style="opacity:0.05;filter:url(#filter941)" d="m 199.03338,105.1769 c 4.23134,-0.0532 7.07155,0.89696 8.53084,2.64832 1.53216,1.82431 2.32023,4.81666 2.32023,8.97616 v 72.74891 c 0,4.15961 -0.78807,7.15179 -2.32023,8.97615 -1.45929,1.75144 -4.29916,2.64833 -8.53084,2.64833 h -90.2997 c -4.23168,0 -7.07943,-0.89689 -8.53872,-2.64833 -1.532158,-1.82437 -2.312388,-4.81655 -2.312388,-8.97616 v -72.7489 c 0,-4.1595 0.78023,-7.15185 2.312388,-8.97616 1.4592,-1.75136 4.30704,-2.64832 8.53872,-2.64832 z"/>
 <path d="m 199.03338,103.1769 c 4.23134,-0.0532 7.07155,0.89696 8.53084,2.64832 1.53216,1.82431 2.32023,4.81666 2.32023,8.97616 v 72.74891 c 0,4.15961 -0.78807,7.15179 -2.32023,8.97615 -1.45929,1.75144 -4.29916,2.64833 -8.53084,2.64833 h -90.2997 c -4.23168,0 -7.07943,-0.89689 -8.53872,-2.64833 -1.532158,-1.82437 -2.312388,-4.81655 -2.312388,-8.97616 v -72.7489 c 0,-4.1595 0.78023,-7.15185 2.312388,-8.97616 1.4592,-1.75136 4.30704,-2.64832 8.53872,-2.64832 z" style="fill:#a2bcfe"/>
 <path d="m 151.03338,57.17689 c 4.23134,-0.05324 7.07155,0.896961 8.53084,2.648322 1.53216,1.824317 2.32023,4.816665 2.32023,8.976166 v 72.748912 c 0,4.15961 -0.78807,7.15179 -2.32023,8.97615 -1.45929,1.75144 -4.29916,2.64833 -8.53084,2.64833 H 60.733678 c -4.23167,0 -7.07942,-0.89689 -8.53871,-2.64833 -1.53217,-1.82437 -2.3124,-4.81655 -2.3124,-8.97616 V 68.801378 c 0,-4.159501 0.78023,-7.151849 2.3124,-8.976166 1.45919,-1.751361 4.30704,-2.648322 8.53871,-2.648322 z" style="opacity:0.1;filter:url(#filter927)"/>
 <path style="fill:#ffffff" d="m 151.03338,55.17689 c 4.23134,-0.05324 7.07155,0.896961 8.53084,2.648322 1.53216,1.824317 2.32023,4.816665 2.32023,8.976166 v 72.748912 c 0,4.15961 -0.78807,7.15179 -2.32023,8.97615 -1.45929,1.75144 -4.29916,2.64833 -8.53084,2.64833 H 60.733678 c -4.23167,0 -7.07942,-0.89689 -8.53871,-2.64833 -1.53217,-1.82437 -2.3124,-4.81655 -2.3124,-8.97616 V 66.801378 c 0,-4.159501 0.78023,-7.151849 2.3124,-8.976166 1.45919,-1.751361 4.30704,-2.648322 8.53871,-2.648322 z"/>
 <path style="opacity:0.3;fill:#ffffff" d="m 56.805392,15.174464 c -35.296728,0 -39.094869,3.62603 -38.921879,38.994139 v 2 C 17.710523,20.800494 21.508664,17.174464 56.805392,17.174464 H 202.96163 c 35.29673,0 38.92188,3.62561 38.92188,38.994139 v -2 c 0,-35.368529 -3.62515,-38.994139 -38.92188,-38.994139 z"/>
 <path style="opacity:0.2" d="m 56.810792,239.17447 c -35.296731,0 -39.094874,-3.62603 -38.921884,-38.99414 v -2 c -0.17299,35.36811 3.625153,38.99414 38.921884,38.99414 H 202.96703 c 35.29673,0 38.92188,-3.62561 38.92188,-38.99414 v 2 c 0,35.36853 -3.62515,38.99414 -38.92188,38.99414 z"/>
</svg>
